X: 33597
T: Rakes Of Merlot, The
R: polka
M: 2/4
K: Dmajor
A2|:d2 d>c|BA FA|BG Bd|c2 e/d/c/B/|
AB cd|ef ge|f/g/a ge|1 fd ec:|2 d2 A>B||
cd ef|gf ed|cd ef|e2 f>g|
af ge|fd ed|ca ge|d2 e>d|
cd ef|g/4a/4g/f ed|B/c/d ef|g2- gf/g/|
af ge|fd ed|c/B/A G/F/E|D2||

